X:1
T:Title
%%score { ( 1 3 ) | ( 2 4 ) }
L:1/8
Q:1/4=110
M:4/4
K:Bb
V:1 treble nm="Grand Piano"
V:3 treble 
V:2 bass 
V:4 bass 
V:1
 [DF]2 [DF]>[DF] [EG]2 [FA]2 | [FB]2 c2 d4 | [DF]2 [DB]2 G4 | F2 c2 [DB]4 | %4
w: J.~H.~Rosecrans * * * *||||
 [DF]2 [DF]>[DF] [EG]2 [FA]2 | [FB]2 c2 d4 | [DF]2 [FB]2 G2 A2 | [DB]6 z2 | d2 d>d d2 d2 | %9
w: |||||
 cB G2 [DF]4 | c2 c>c c2 c2 | [FB]2 c2 d4 | d2 d>d d2 d2 | .[EGc]2 [B,EG]2 [B,DF]4 | %14
w: |||||
 [B,EG]2 [EGc]2 [DFB]2 [CFA]2 | [DFB]6 z2 |] %16
w: ||
V:2
 [B,,B,]2 [B,,B,]>[B,,B,] [E,B,]2 [C,C]2 | [D,B,]2[K:treble] [F,A,F]2 [B,F]4 | %2
 [B,,B,]2 [B,,B,]2 [E,B,E]4 | [F,A,C]2 [F,E]2 [B,,F,]4 | [B,,B,]2 [B,,B,]>[B,,B,] [E,B,]2 [C,C]2 | %5
 [D,B,]2[K:treble] [F,A,F]2 [B,F]4 | [B,,B,]2 [D,B,]2 [E,B,E]2 [F,E]2 | [B,,F,]6 z2 | %8
 [B,F]2 [B,F]>[B,F] [B,F]2 [B,F]2 | [E,E]2 [E,B,E]2 [B,,B,]4 | %10
 [F,A,F]2 [F,A,F]>[F,A,F] [F,A,F]2 [F,A,F]2 | [D,B,]2[K:treble] [F,A,F]2 [B,F]4 | %12
 [B,F]2 [B,F]>[B,F] [B,F]2 [B,F]2 | z B[K:bass] E,2 B,,4 | E,2 C,2 F,2 F,2 | B,,6 z2 |] %16
V:3
 x8 | x8 | x8 | x8 | x8 | x8 | x8 | x8 | x8 | G2 z2 z4 | x8 | x8 | x8 | x8 | x8 | x8 |] %16
V:4
 x8 | x2[K:treble] x6 | x8 | x8 | x8 | x2[K:treble] x6 | x8 | x8 | x8 | x8 | x8 | x2[K:treble] x6 | %12
 x8 | E,2[K:bass] z2 z4 | x8 | x8 |] %16

